src/lib/packages/icons/src/assets/filled/video-plus.svg

<svg width="24" height="24" viewBox="0 0 24 24" fill="none" xmlns="http://www.w3.org/2000/svg">
<path d="M22 7.56006V16.4399C22 17.0719 21.2689 17.4221 20.7759 17.0271L18.6121 15.29C18.5411 15.233 18.5 15.1469 18.5 15.0559V8.94409C18.5 8.85309 18.5411 8.76696 18.6121 8.70996L20.7759 6.9729C21.2689 6.5779 22 6.92806 22 7.56006ZM17 8V16C17 18 16 19 14 19H5C3 19 2 18 2 16V8C2 6 3 5 5 5H14C16 5 17 6 17 8ZM12.75 12C12.75 11.586 12.414 11.25 12 11.25H10.25V9.5C10.25 9.086 9.914 8.75 9.5 8.75C9.086 8.75 8.75 9.086 8.75 9.5V11.25H7C6.586 11.25 6.25 11.586 6.25 12C6.25 12.414 6.586 12.75 7 12.75H8.75V14.5C8.75 14.914 9.086 15.25 9.5 15.25C9.914 15.25 10.25 14.914 10.25 14.5V12.75H12C12.414 12.75 12.75 12.414 12.75 12Z" fill="currentColor"/>
</svg>

<svg xmlns="http://www.w3.org/2000/svg" width="24" height="24" fill="none"><path fill="currentColor" d="M22 7.56v8.88a.753.753 0 0 1-1.224.587l-2.164-1.737a.3.3 0 0 1-.112-.234V8.944a.3.3 0 0 1 .112-.234l2.164-1.737A.753.753 0 0 1 22 7.56ZM17 8v8c0 2-1 3-3 3H5c-2 0-3-1-3-3V8c0-2 1-3 3-3h9c2 0 3 1 3 3Zm-4.25 4a.75.75 0 0 0-.75-.75h-1.75V9.5a.75.75 0 0 0-1.5 0v1.75H7a.75.75 0 0 0 0 1.5h1.75v1.75a.75.75 0 0 0 1.5 0v-1.75H12a.75.75 0 0 0 .75-.75Z"/></svg>
